X: 11172
P: Copyright.
M: C
L: 1/8
K: D
[|\
(3(fef) af (3(fef) af | g2 ee f2 dd |\
(3(fef) af (3(fef) af | g2 ee d2 z2 |\
aa (b/a/).f aa (b/a/).f | g2 (a/g/).e g2 (a/g/).e  |\
aa (b/a/).f aa (b/a/).f | g2 (a/g/).e d2z2 |
.d2 .d2 .d2 z2 | (3(fef) af (3(fef) af |\
g2 ee f2 dd | A2 (B/A/.F) A2 (B/A/.F) |\
g2 ee d2 z2 | .d2 .d2 .d2 z2 |]


